X:1
T:Italian Polka
T:Italian Polka
T:Arranged by a Lady in Baltimore And respectfully Dedicated to Miss Mary V. Keerl 
T:by IMSLP - Public Domain - Baltimore: F. D. Benteen, 1847. Plate 1048 
T:by IMSLP - Public Domain - Baltimore: F. D. Benteen, 1847. Plate 1048 
Z:by IMSLP - Public Domain - Baltimore: F. D. Benteen, 1847. Plate 1048
%%score { ( 1 3 ) | 2 }
L:1/8
Q:1/4=108
M:2/4
K:F
V:1 treble nm="Piano" snm="Pno."
V:3 treble 
V:2 bass 
V:1
"^Moderato" .F.f.f.d |{d} .c.F.F.d |{d} .c.E.E.d | .c.F.F.F | .F.[Ff].[Ff].d |{d} .c.F.F.d | cBGE | %7
 .G.F.F z |!8va(! f[ff'][ff'][bd'] |{d'} c'ffd' |{d'} c'eed' |{d'} c'ff>f | f[ff'][ff'][bd'] | %13
{d'} c'ffd' | c'bge | .[Bg].[Af].[Af] z!8va)! ||"^loco."!f! ([FA]/[GB]/[FA]/[GB]/) ([Ac]/F/A/c/) | %17
 .[FAcf].[FBd].[FAc] z | .[FBdf]/.[FBdf]/.[FBdf] .[FAc].[FBd] | .[FBd].[FAc][FAc]>F | %20
!p! E/F/G/A/ B>d | (dcf>)A |{d} (cB/c/) (BG) | .[B,G].[A,F].[A,F] z | %24
!f!!8va(! ([fa]/[gb]/[fa]/[gb]/) ([ac']/f/a/c'/) | f'[fbd'][fac'] z | %26
 [fbd'f']/[fbd'f']/[fbd'f'] [fac'][fbd'] | [fbd'][fac'][fac']>f |!p! e/f/g/a/ b>d' | (d'c'f'>)a | %30
 c'bbe | .[Bg].[Af].[Af] z!8va)! ||"^loco."!ff! !arpeggio![CEGc]2!p! (E/F/G/A/) | .B.d.d.c | %34
!ff! !arpeggio![CEGc]2!p! (E/F/G/A/) |{d} (c/B/c/A/) F z |!ff! !arpeggio![CEGc]2 (E/F/G/A/) | %37
!p! Bddc |!p! [Af]/F/[Af]/F/ [=Bf]/G/[Bf]/E/ | !arpeggio!!fermata![EGce]3 z | %40
!8va(! ([fa]/[gb]/[fa]/[gb]/) ([ac']/f/a/c'/) | f'[fbd'][fac'] z | %42
 [fbd'f']/[fbd'f']/[fbd'f'] [fac'][fbd'] | [fbd'][fac'][fac']>f | (e/f/g/a/) b>d' | d'c'f'>a | %46
 c'bbe | .[Bg].[Af].[Af] z!8va)! ||"^loco." .F.[fa].[fa].[eg] | [df][Bd][Bd]>[ce] | %50
 .[df].[Bdf] [Bd]/[Ac]/[Bd]/[Ge]/ | .[Af].[FA] [CEGc]2 |{d} cEc>d |{d} cEc>d | %54
 (f/e/d/c/) (c'/b/d/e/) | .f.[ca] [Af]2 |!8va(! .f.[f'a'].[f'a'].[e'g'] | [d'f'][bd'][bd']>[c'e'] | %58
 .[d'f'].[bd'f'] [bd']/[ac']/[bd']/[ge']/ | .[af'].[fa] [cegc']2 |{d'} c'ec'>d' |{d'} c'ec'>d' | %62
 (f'/e'/d'/c'/) (c''/b'/d'/e'/) | (f'[c'a']/[bg']/ [af']) z!8va)! | %64
"^loco." ([FA]/[GB]/[FA]/[GB]/) ([Ac]/F/A/c/) | .f.[FBd] [FAc]2 | [FBdf]/[FBdf]/[FBdf] [FAc][FBd] | %67
 [FBd][FAc][FAc]>F |!p! (E/F/G/A/) B>d | dcf>A | cBBE | .[B,G].[A,F] .[A,F] z || %72
!ff!!8va(! !arpeggio![cegc']2 (e/f/g/a/) | .b.d'.d'.c' |!ff! !arpeggio![cegc']2 (e/f/g/a/) | %75
{d'} (c'/b/c'/a/) f z |!ff! !arpeggio![cegc']2 (e/f/g/a/) | .b.d'.d'.c' | %78
!p! [af']/f/[af']/f/ [=bf']/g/[bf']/e/ | !fermata![egc'e']3 z!8va)! | %80
"^loco." ([FA]/[GB]/[FA]/[GB]/) ([Ac]/F/A/c/) | f[FBd] [FAc]2 | [FBdf]/[FBdf]/[FBdf] [FAc][FBd] | %83
 [FBd][FAc][FAc]>F | (E/F/G/A/) B>d | dcf>A | .c.B.B.E | [B,G].[A,F] .[A,F]2 |] %88
V:2
 [F,,F,]2 [B,D]2 | [F,,F,]2 [A,C]2 | [C,,C,]2 [G,B,]2 | [F,,F,]2 [A,C]2 | [F,,F,]2 [B,D]2 | %5
 [F,,F,]2 [A,C]2 | [C,,C,]2 [C,G,B,]2 | [F,,F,]2 [F,,F,] z | [F,,F,]2 [B,D]2 | [F,,F,]2 [A,C]2 | %10
 [C,,C,]2 [G,B,]2 | [F,,F,]2 [A,C]2 | [F,,F,]2 [B,D]2 | [F,,F,]2 [A,C]2 | [C,,C,]2 [C,G,B,]2 | %15
 [F,,F,]2 [F,,F,] z || [F,,F,][A,C][F,,F,][A,C] | [F,,F,][B,D][F,,F,][A,C] | %18
 [F,,F,][B,D][F,,F,][B,D] | [F,,F,][A,C][F,,F,][A,C] | [G,B,]C,[G,B,]C, | [F,A,]C,[F,A,]C, | %22
 [G,B,]C,[G,B,]C, | [F,,F,][F,,F,][F,,F,] z | [F,,F,][A,C][F,,F,][A,C] | [F,,F,][B,D][F,,F,][A,C] | %26
 [F,,F,][B,D][F,,F,][B,D] | [F,,F,][A,C][F,,F,][A,C] | [G,B,]C,[G,B,]C, | [F,A,]C,[F,A,]C, | %30
 [G,B,]C,[G,B,]C, | [F,,F,][F,,F,][F,,F,] z || !arpeggio![C,,E,,G,,C,]2 z2 | %33
 .[G,,G,].[E,,E,] .[C,,C,]2 | !arpeggio![C,,F,,A,,C,]2 z2 | .[C,C].[A,,A,] .[F,,F,] z | %36
 !arpeggio![C,,E,,G,,C,]2 z2 | [G,B,]C,[F,A,]C, | [F,,F,]2 [G,,G,]2 | %39
 !arpeggio!!fermata![C,,E,,G,,C,]2 z2 | [F,,F,][A,C][F,,F,][A,C] | [F,,F,][B,D][F,,F,][A,C] | %42
 [F,,F,][B,D][F,,F,][B,D] | [F,,F,][A,C][F,,F,][A,C] | [G,B,]C,[G,B,]C, | [F,A,]C,[F,A,]C, | %46
 [G,B,]C,[G,B,]C, | [F,,F,][F,,F,][F,,F,] z || .[F,,F,].[F,A,].[F,,F,].[F,A,] | %49
 .[B,,B,].[B,D].[B,,B,].[B,D] | .[B,,B,].[B,D].[B,,B,].[B,D] | .[F,,F,].[F,A,] [C,,E,,G,,C,]2 | %52
 [G,B,]C,[G,B,]C, | [G,B,]C,[G,B,]C, | [E,B,]C,[E,B,]C, | [F,,F,][F,A,] [F,,F,]2 | %56
 .[F,,F,].[F,A,].[F,,F,].[F,A,] | .[B,,B,].[B,D].[B,,B,].[B,D] | .[B,,B,].[B,D].[B,,B,].[B,D] | %59
 .[F,,F,].[F,A,] [C,,E,,G,,C,]2 | [G,B,]C,[G,B,]C, | [G,B,]C,[G,B,]C, | [E,B,]C,[E,B,]C, | %63
 [F,,F,][F,A,] [F,,F,] z | [F,,F,][A,C][F,,F,][A,C] | [F,,F,][B,D][F,,F,][A,C] | %66
 [F,,F,][B,D][F,,F,][B,D] | [F,,F,][A,C][F,,F,][A,C] | [G,B,]C,[G,B,]C, | [F,A,]C,[F,A,]C, | %70
 [G,B,]C,[G,B,]C, | [F,,F,][F,,F,][F,,F,] z || !arpeggio![C,,E,,G,,C,]2 z2 | G,E, C,2 | %74
 !arpeggio![C,,F,,A,,C,]2 z2 | .C.A, F,2 | !arpeggio![C,,E,,G,,C,]2 z2 | .G,.E, .C,2 | %78
 [F,,F,]2 [G,,G,]2 | !fermata![C,,E,,G,,C,]2 z2 | .[F,,F,].[A,C].[F,,F,].[A,C] | %81
 .[F,,F,].[B,D].[F,,F,].[A,C] | .[F,,F,].[B,D].[F,,F,].[B,D] | .[F,,F,].[A,C].[F,,F,].[A,C] | %84
 [G,B,]C,[G,B,]C, | [F,A,]C,[F,A,]C, | [G,B,]C,[G,B,]C, | [F,,F,][F,,F,] [F,,F,]2 |] %88
V:3
 x4 | x4 | x4 | x4 | x4 | x4 | x4 | x4 |!8va(! x4 | x4 | x4 | x4 | x4 | x4 | e2 c2 | x4!8va)! || %16
 x4 | x4 | x4 | x4 | x4 | x4 | x4 | x4 |!8va(! x4 | x4 | x4 | x4 | x4 | x4 | x4 | x4!8va)! || x4 | %33
 x4 | x4 | x4 | x4 | x4 | x4 | x4 |!8va(! x4 | x4 | x4 | x4 | x4 | x4 | x4 | x4!8va)! || x4 | x4 | %50
 x4 | x4 | x4 | x4 | x4 | x4 |!8va(! x4 | x4 | x4 | x4 | x4 | x4 | x4 | x4!8va)! | x4 | x4 | x4 | %67
 x4 | x4 | x4 | x4 | x4 ||!8va(! x4 | x4 | x4 | x4 | x4 | x4 | x4 | x4!8va)! | x4 | x4 | x4 | x4 | %84
 x4 | x4 | x4 | x4 |] %88

